packages/katcn/src/icons/svg/filter-solid.svg

<svg width="24" height="24" viewBox="0 0 24 24" fill="none" xmlns="http://www.w3.org/2000/svg">
<path d="M12 2H3.80686C2.2082 2 1.40887 3.99579 2.50795 5.09347L9.30226 11.9789V21.0598C9.30226 21.7583 10.1016 22.2572 10.7011 21.8581L13.8984 19.6627C14.398 19.3633 14.6977 18.7646 14.6977 18.1659V11.9789L21.4921 5.09347C22.5911 3.99579 21.7918 2 20.1931 2H12Z" fill="black"/>
</svg>

<svg xmlns="http://www.w3.org/2000/svg" fill="none" viewBox="0 0 24 24"><path fill="#000" d="M12 2H3.807C2.208 2 1.409 3.996 2.508 5.093l6.794 6.886v9.08c0 .7.8 1.198 1.4.8l3.196-2.196c.5-.3.8-.898.8-1.497v-6.187l6.794-6.886c1.1-1.097.3-3.093-1.299-3.093z"/></svg>
